X:34
T:Prussian Camp, The
M:6/8
L:1/8
N:The ‘d' note in the third measure of the 2nd part may be played sharp.
B:Thompson's Compleat Collection of 200 Favourite Country Dances, vol. 2 (London, 1765)
Z:Transcribed and edited by Flynn Titford-Mock, 2007
Z:abc's:AK/Fiddler's Companion
K:A
agf edc | BcA GFE | agf edc | BcA e3 :: e=gf edc | dAF DFA |
fag fed | eBG E3 | agf edc | BcA GFE | Fad cdB | A3 A,3 :|

